X:235
T: O'Flaherty's Gamble
S: "Roche Collection of Traditional Irish Music" [III/23/76]
L: 1/8
M: 4/4
R: reel
K: F
F2 AF cFAF | BAGA BGdc | AGFG AFcA |1 BAGF EFGE :|2\
dcAG F2 Fz ||
a2 gf a2 gf | gfef gabg | a2 gf efdf | agfe f3f |
a2 gf a2 gf | gfef gabg | afge fdec | dfcA cBGA ||
P: version in D
K: D
D2 FD ADFD | GFEF GEBA | FEDE FDAF |1 GFED CDEC :|2\
BAFE D2 Dz ||
f2 ed f2 ed | edcd efge | f2 ed cdBd | fedc d3d |
f2 ed f2 ed | edcd efge | fdec dBcA | BdAF AGEF ||



